themes/default/assets/images/icons/mid/feature-list.svg

<?xml version="1.0" encoding="UTF-8"?>
<svg width="100px" height="75px" viewBox="0 0 100 75" version="1.1" xmlns="http://www.w3.org/2000/svg" xmlns:xlink="http://www.w3.org/1999/xlink">
    <!-- Generator: sketchtool 59 (101010) - https://sketch.com -->
    <title>050FECC3-2022-4932-8457-EA63C50C22CA</title>
    <desc>Created with sketchtool.</desc>
    <g id="Page-1" stroke="none" stroke-width="1" fill="none" fill-rule="evenodd">
        <g id="Icons" transform="translate(-614.000000, -2071.000000)" fill-rule="nonzero">
            <g id="mid-icon-featurelist" transform="translate(614.000000, 2071.000000)">
                <path d="M96.34,75.0000138 L3.66,75.0000138 C2.69195871,75.0026558 1.76251125,74.620648 1.07612732,73.9380148 C0.38974338,73.2553816 0.00264853484,72.3280413 0,71.36 L0,3.64 C0.00264853484,2.67195869 0.38974338,1.74461836 1.07612732,1.06198516 C1.76251125,0.379351955 2.69195871,-0.00265580106 3.66,-1.37556313e-05 L96.34,-1.37556313e-05 C97.3080413,-0.00265580106 98.2374887,0.379351955 98.9238727,1.06198516 C99.6102566,1.74461836 99.9973515,2.67195869 100,3.64 L100,71.36 C99.9973515,72.3280413 99.6102566,73.2553816 98.9238727,73.9380148 C98.2374887,74.620648 97.3080413,75.0026558 96.34,75.0000138 Z M3.66,1.39 C2.4157313,1.39 1.40550561,2.39574348 1.4,3.64 L1.4,71.36 C1.40550561,72.6042565 2.4157313,73.61 3.66,73.61 L96.34,73.61 C97.5842687,73.61 98.5944944,72.6042565 98.6,71.36 L98.6,3.64 C98.5944944,2.39574348 97.5842687,1.39 96.34,1.39 L3.66,1.39 Z" id="Shape" fill="#A8C5DD"></path>
                <path d="M14,20.94 L21.11,11.09 C21.2750799,10.8911122 21.3151599,10.6166422 21.2138466,10.3788538 C21.1125334,10.1410654 20.8868192,9.97984102 20.6290258,9.96112469 C20.3712325,9.94240835 20.1245977,10.0693392 19.99,10.29 L13.8,18.83 L11.16,16.19 C11.0297469,16.0530356 10.8490108,15.9754997 10.66,15.9754997 C10.4709892,15.9754997 10.2902531,16.0530356 10.16,16.19 C10.0203251,16.3187436 9.94086874,16.5000421 9.94086874,16.69 C9.94086874,16.8799579 10.0203251,17.0612564 10.16,17.19 L14,20.94 Z" id="Path" fill="#2969F6"></path>
                <path d="M20,25 L13.8,33.55 L11.16,30.92 C11.0297469,30.7830356 10.8490108,30.7054997 10.66,30.7054997 C10.4709892,30.7054997 10.2902531,30.7830356 10.16,30.92 C10.0203251,31.0487436 9.94086874,31.2300421 9.94086874,31.42 C9.94086874,31.6099579 10.0203251,31.7912564 10.16,31.92 L14,35.67 L21.11,25.82 C21.2286736,25.6687599 21.2788716,25.4748677 21.2484992,25.2850401 C21.2181268,25.0952125 21.109938,24.9266622 20.95,24.82 C20.6361059,24.6165262 20.2177037,24.6958025 20,25 L20,25 Z" id="Path" fill="#2969F6"></path>
                <path d="M20,39.74 L13.8,48.27 L11.16,45.64 C11.0297469,45.5030356 10.8490108,45.4254997 10.66,45.4254997 C10.4709892,45.4254997 10.2902531,45.5030356 10.16,45.64 C10.0203251,45.7687436 9.94086874,45.9500421 9.94086874,46.14 C9.94086874,46.3299579 10.0203251,46.5112564 10.16,46.64 L14,50.39 L21.11,40.54 C21.298341,40.2312319 21.2163009,39.8294309 20.9219924,39.6192106 C20.627684,39.4089903 20.2209944,39.4616986 19.99,39.74 L20,39.74 Z" id="Path" fill="#2969F6"></path>
                <path d="M20,54.46 L13.8,63 L11.16,60.36 C11.0297469,60.2230356 10.8490108,60.1454997 10.66,60.1454997 C10.4709892,60.1454997 10.2902531,60.2230356 10.16,60.36 C10.0203251,60.4887436 9.94086874,60.6700421 9.94086874,60.86 C9.94086874,61.0499579 10.0203251,61.2312564 10.16,61.36 L14,65.11 L21.11,55.26 C21.298341,54.9512319 21.2163009,54.5494309 20.9219924,54.3392106 C20.627684,54.1289903 20.2209944,54.1816986 19.99,54.46 L20,54.46 Z" id="Path" fill="#2969F6"></path>
                <path d="M28.89,14 L70.17,14 C70.521766,13.9577291 70.7864835,13.6592967 70.7864835,13.305 C70.7864835,12.9507033 70.521766,12.6522709 70.17,12.61 L28.89,12.61 C28.6217947,12.5777704 28.3589801,12.702743 28.2146963,12.9311178 C28.0704126,13.1594926 28.0704126,13.4505074 28.2146963,13.6788822 C28.3589801,13.907257 28.6217947,14.0322296 28.89,14 L28.89,14 Z" id="Path" fill="#032663"></path>
                <path d="M28.89,18.93 L63.26,18.93 C63.5282053,18.9622296 63.7910199,18.837257 63.9353037,18.6088822 C64.0795874,18.3805074 64.0795874,18.0894926 63.9353037,17.8611178 C63.7910199,17.632743 63.5282053,17.5077704 63.26,17.54 L28.89,17.54 C28.6217947,17.5077704 28.3589801,17.632743 28.2146963,17.8611178 C28.0704126,18.0894926 28.0704126,18.3805074 28.2146963,18.6088822 C28.3589801,18.837257 28.6217947,18.9622296 28.89,18.93 Z" id="Path" fill="#032663"></path>
                <path d="M28.89,28.74 L67.21,28.74 C67.4782053,28.7722296 67.7410199,28.647257 67.8853037,28.4188822 C68.0295874,28.1905074 68.0295874,27.8994926 67.8853037,27.6711178 C67.7410199,27.442743 67.4782053,27.3177704 67.21,27.35 L28.89,27.35 C28.6217947,27.3177704 28.3589801,27.442743 28.2146963,27.6711178 C28.0704126,27.8994926 28.0704126,28.1905074 28.2146963,28.4188822 C28.3589801,28.647257 28.6217947,28.7722296 28.89,28.74 L28.89,28.74 Z" id="Path" fill="#032663"></path>
                <path d="M28.89,33.65 L53.4,33.65 C53.6682053,33.6822296 53.9310199,33.557257 54.0753037,33.3288822 C54.2195874,33.1005074 54.2195874,32.8094926 54.0753037,32.5811178 C53.9310199,32.352743 53.6682053,32.2277704 53.4,32.26 L28.89,32.26 C28.6217947,32.2277704 28.3589801,32.352743 28.2146963,32.5811178 C28.0704126,32.8094926 28.0704126,33.1005074 28.2146963,33.3288822 C28.3589801,33.557257 28.6217947,33.6822296 28.89,33.65 Z" id="Path" fill="#032663"></path>
                <path d="M75.1,42.08 L28.89,42.08 C28.6217947,42.0477704 28.3589801,42.172743 28.2146963,42.4011178 C28.0704126,42.6294926 28.0704126,42.9205074 28.2146963,43.1488822 C28.3589801,43.377257 28.6217947,43.5022296 28.89,43.47 L75.1,43.47 C75.451766,43.4277291 75.7164835,43.1292967 75.7164835,42.775 C75.7164835,42.4207033 75.451766,42.1222709 75.1,42.08 L75.1,42.08 Z" id="Path" fill="#032663"></path>
                <path d="M72.14,47 L28.89,47 C28.6217947,46.9677704 28.3589801,47.092743 28.2146963,47.3211178 C28.0704126,47.5494926 28.0704126,47.8405074 28.2146963,48.0688822 C28.3589801,48.297257 28.6217947,48.4222296 28.89,48.39 L72.14,48.39 C72.4082053,48.4222296 72.6710199,48.297257 72.8153037,48.0688822 C72.9595874,47.8405074 72.9595874,47.5494926 72.8153037,47.3211178 C72.6710199,47.092743 72.4082053,46.9677704 72.14,47 L72.14,47 Z" id="Path" fill="#032663"></path>
                <path d="M70.17,56.8 L28.89,56.8 C28.6217947,56.7677704 28.3589801,56.892743 28.2146963,57.1211178 C28.0704126,57.3494926 28.0704126,57.6405074 28.2146963,57.8688822 C28.3589801,58.097257 28.6217947,58.2222296 28.89,58.19 L70.17,58.19 C70.521766,58.1477291 70.7864835,57.8492967 70.7864835,57.495 C70.7864835,57.1407033 70.521766,56.8422709 70.17,56.8 L70.17,56.8 Z" id="Path" fill="#032663"></path>
                <path d="M40.58,61.71 L28.89,61.71 C28.6217947,61.6777704 28.3589801,61.802743 28.2146963,62.0311178 C28.0704126,62.2594926 28.0704126,62.5505074 28.2146963,62.7788822 C28.3589801,63.007257 28.6217947,63.1322296 28.89,63.1 L40.58,63.1 C40.8482053,63.1322296 41.1110199,63.007257 41.2553037,62.7788822 C41.3995874,62.5505074 41.3995874,62.2594926 41.2553037,62.0311178 C41.1110199,61.802743 40.8482053,61.6777704 40.58,61.71 L40.58,61.71 Z" id="Path" fill="#032663"></path>
            </g>
        </g>
    </g>
</svg>

<svg width="100" height="75" xmlns="http://www.w3.org/2000/svg"><g fill-rule="nonzero" fill="none"><path d="M96.34 75H3.66A3.65 3.65 0 010 71.36V3.64A3.65 3.65 0 013.66 0h92.68A3.65 3.65 0 01100 3.64v67.72A3.65 3.65 0 0196.34 75zM3.66 1.39A2.26 2.26 0 001.4 3.64v67.72a2.26 2.26 0 002.26 2.25h92.68a2.26 2.26 0 002.26-2.25V3.64a2.26 2.26 0 00-2.26-2.25H3.66z" fill="#A8C5DD"/><path d="M14 20.94l7.11-9.85a.69.69 0 10-1.12-.8l-6.19 8.54-2.64-2.64a.69.69 0 00-1 0 .68.68 0 000 1L14 20.94zM20 25l-6.2 8.55-2.64-2.63a.69.69 0 00-1 0 .68.68 0 000 1L14 35.67l7.11-9.85a.69.69 0 00-.16-1A.7.7 0 0020 25zM20 39.74l-6.2 8.53-2.64-2.63a.69.69 0 00-1 0 .68.68 0 000 1L14 50.39l7.11-9.85a.69.69 0 00-1.12-.8H20zM20 54.46L13.8 63l-2.64-2.64a.69.69 0 00-1 0 .68.68 0 000 1L14 65.11l7.11-9.85a.69.69 0 00-1.12-.8H20z" fill="#2969F6"/><path d="M28.89 14h41.28a.7.7 0 000-1.39H28.89a.7.7 0 100 1.39zM28.89 18.93h34.37a.7.7 0 100-1.39H28.89a.7.7 0 100 1.39zM28.89 28.74h38.32a.7.7 0 100-1.39H28.89a.7.7 0 100 1.39zM28.89 33.65H53.4a.7.7 0 100-1.39H28.89a.7.7 0 100 1.39zM75.1 42.08H28.89a.7.7 0 100 1.39H75.1a.7.7 0 000-1.39zM72.14 47H28.89a.7.7 0 100 1.39h43.25a.7.7 0 100-1.39zM70.17 56.8H28.89a.7.7 0 100 1.39h41.28a.7.7 0 000-1.39zM40.58 61.71H28.89a.7.7 0 100 1.39h11.69a.7.7 0 100-1.39z" fill="#032663"/></g></svg>
